X: 1
T: The Sylvan Strathspey
T: 8x32S 2C (Tom Winter, 1999)
P: The Sylvan Strathspey
C: Gary Thomas 2003
M: 4/4
L: 1/8
K: F
|: f>g|"F"a<fc>a "Bb"b>ag>f|"C"e<cG>B "A"A2 AG|"Dm"F<A"Bb"B>G "F"c/B/A/G/ "Dm"F>G/3A/3|1 "Gm"B>A!beambr1!G<F "C"c2 f>g :| [2 "Bb"B<d"C"c<e "F"f2 "A"e2||
|: "Dm"d>A!beambr1!F<D "A"^C<E A2|"Gm"B>G!beambr1!D<B "Dm"A2 "A"AG|"Dm"(3FGA "Bb"BAB "Am"c/B/A/G/ "Dm"FG/A/|"Gm"B>A!beambr1!G<F "C"c2 "A"fe|"Dm"d>A!beambr1!F<D "A"^C<E A2|
"Gm"B>G!beambr1!D<B "Dm"A2 "A"=B^c |1"Bb"d>B!beambr1!F<D "F"C<FAC|"Bb"D2 "A"D<^C D2 :| [2 "Bb"d>B!beambr1!F<D "F"C<FAc |"Bb"d2 "A"d<^c "Dm"d2 |]

